!!!!SEGMENT: pl-kk--kk-i-15--005_asola-giovanni-matteo--dum-complerentur.krn
!!!cenid: 16xx:1122
!!!COM: Asola, Giovanni Matteo
!!!COM-rismID: pe20000387
!!!CDT: <=1532-1609/10/01
!!!CNT: Italian
!!!OTL: Dum complerentur
!!!PDT:
!!!AGN: Sacred
!!!YEC: Copyright 2022 Narodowy Instytut Fryderyka Chopina (https://polishscores.org)
!!!YEM: License CC-BY-4.0 (https://creativecommons.org/licenses/by/4.0)
!!!SMS-siglum: PL-Kk
!!!SMS-shelfmark: Kk.I.15
!!!SMS-shelfwork: 005 W
!!!SMS-variant:
!!!SMS-altvar:
!!!NIFC-rismSourceID: 1001146379
!!!NIFC-rismChildID: 1001146649
!!!NIFC-islandoraID: pl-kk:2631
!!!URL-pdf-islandora: https://repozytorium.nifc.pl/islandora/object/pl-kk%3A2631/datastream/PDF/view
!!!URL-scan: https://polish.musicsources.pl/pl/lokalizacje/galeria/rekopisy/5777 @EN{Scan on Polish Music Sources Website} @PL{Skany w portalu Dziedzictwo Muzyki Polskiej w otwartym dostępie}
!!!IIIF:
!!!ONB-nifc: UWAGA: C (skan 0004-0005), A (skan 0022-0023), T (skan 0039-0040 ), B (skan 0057-0058). Następny motet: Exaudisti Domine
!!!AIN: 1 alto 1 bass 2 tenor
!!!key: G:mix
**kern	**text	**kern	**text	**kern	**text	**kern	**text
*part4	*	*part3	*	*part2	*	*part1	*
*staff4	*	*staff3	*	*staff2	*	*staff1	*
*I"Baſso	*	*I"Tenore.	*	*I"Alto	*	*I"Canto.	*
*mI"Basso	*	*mI"Tenore II	*	*mI"Tenore I	*	*mI"Alto	*
*I'B	*	*I'T	*	*I'A	*	*I'S	*
*	*	*mI'T 2	*	*mI'T 1	*	*mI'A	*
*Ibass	*	*Itenor	*	*Itenor	*	*Ialto	*
*ICvox	*	*ICvox	*	*ICvox	*	*ICvox	*
*clefF4	*	*clefC4	*	*clefC4	*	*clefC3	*
*	*	*mclefGv2	*	*mclefGv2	*	*mclefG2	*
*k[]	*	*k[]	*	*k[]	*	*k[]	*
*G:mix	*	*G:mix	*	*G:mix	*	*G:mix	*
*M2/1	*	*M2/1	*	*M2/1	*	*M2/1	*
*met(C|)	*	*met(C|)	*	*met(C|)	*	*met(C|)	*
*mmet(c|)	*	*mmet(c|)	*	*mmet(c|)	*	*mmet(c|)	*
=1	=1	=1	=1	=1	=1	=1	=1
!LO:MO:null:mod=*null	!	!LO:MO:null:mod=*null	!	!LO:MO:null:mod=*null	!	!LO:MO:null:mod=*null	!
*all\right	*	*all\right	*	*all\right	*	*all\right	*
!LO:TX:t=P:problem=przy kluczu Bn	!	!	!	!	!	!LO:TX:a:mod= :t=3	!
1.G\	Dum	00r	.	0r	.	0r	.
*2\right	*	*	*	*	*	*	*
!LO:TX:t=P:problem=kreska pseudotaktowa	!	!	!	!	!	!	!
2E\	com-	.	.	.	.	.	.
=2-	=2-	=2-	=2-	=2-	=2-	=2-	=2-
!	!	!	!	!	!	!LO:TX:t=P:problem=kreska pseudotaktowa	!
1F\	-ple-	.	.	2r	.	1r	.
.	.	.	.	1d\	Dum	.	.
1G\	-ren-	.	.	.	.	1.g\	Dum
*	*	*	*	*2\right	*	*	*
!	!	!	!	!LO:TX:t=P:problem=kreska pseudotaktowa	!	!	!
.	.	.	.	2B\	com-	.	.
=3-	=3-	=3-	=3-	=3-	=3-	=3-	=3-
!LO:TX:t=P:problem=kreska pseudotaktowa	!	!LO:TX:t=P:problem=kreska pseudotaktowa	!	!	!	!	!
1C/	-tur	1r	.	1c\	-ple-	.	.
*	*	*	*	*	*	*2\right	*
!	!	!	!	!	!	!LO:TX:t=P:problem=kreska pseudotaktowa	!
.	.	.	.	.	.	2e\	com-
1r	.	2r	.	1d\	-ren-	1f\	-ple-
.	.	1d\	Dum	.	.	.	.
=4-	=4-	=4-	=4-	=4-	=4-	=4-	=4-
!	!	!	!	!	!	!LO:TX:t=P:problem=kreska pseudotaktowa	!
2r	.	.	.	2G/	-tur	1g\	-ren-
*	*ij	*2\right	*	*	*	*	*
!LO:TX:t=P:problem=kreska pseudotaktowa	!LO:MO:mod=dum	!LO:TX:t=P:problem=kreska pseudotaktowa	!	!LO:TX:t=P:problem=kreska pseudotaktowa	!	!	!
2G\	Dum	2B\	com-	2G/	di-	.	.
2F\	com-	1c\	-ple-	2A/	-es	2c,</	-tur
*	*	*	*	*	*	*	*ij
!LO:TX:t=P:problem=kreska pseudotaktowa	!	!	!	!	!	!LO:TX:t=P:problem=kreska pseudotaktowa	!LO:MO:mod=dum
2E\	-ple-	.	.	1c\	Pen-	2e\	Dum
=5-	=5-	=5-	=5-	=5-	=5-	=5-	=5-
1D\	-ren-	1d\	-ren-	.	.	2f\	com-
!	!	!	!	!LO:TX:t=P:problem=kreska pseudotaktowa	!	!	!
.	.	.	.	2B\	-te-	2f\	-ple-
!LO:TX:t=P:problem=kreska pseudotaktowa	!	!	!	!	!	!	!
1C/,<	-tur	2G/	-tur	2.c\	-co-	1e\	-ren-
*	*Xij	*	*	*	*	*	*
!	!	!	!LO:MO:mod=di-	!	!	!	!
.	.	1A\	Di-	.	.	.	.
.	.	.	.	4B\	.	.	.
=6-	=6-	=6-	=6-	=6-	=6-	=6-	=6-
!	!LO:MO:mod=di-	!	!	!LO:TX:t=P:problem=kreska pseudotaktowa	!	!LO:TX:t=P:problem=kreska pseudotaktowa	!
1D\	Di-	.	.	1A\	.	1d\	-tur
*	*	*	*	*	*	*	*Xij
!	!	!LO:TX:t=P:problem=kreska pseudotaktowa	!	!	!	!	!
.	.	2F/	-es	.	.	.	.
!	!	!	!LO:MO:null:mod=Pen-	!	!	!	!
2BB/	-es	2G/	.	2B,<\	-stes	2r	.
*custos:C	*	*	*	*	*	*	*
!LO:LB:g=original	!	!	!	!	!	!	!LO:MO:mod=di-
!	!	!	!LO:MO:mod=-te-	!	!	!	!
2.C/	Pen-	2.E/	Pen-	2.G/	di-	1e\	Di-
.	.	.	.	.	.	.	.
=7-	=7-	=7-	=7-	=7-	=7-	=7-	=7-
.	.	.	.	.	.	.	.
!	!LO:MO:null:mod=-te-	!	!LO:MO:mod=.	!	!LO:MO:mod=.	!	!
4BB/	.	4F/	-te-	4A/	-es	.	.
*	*	*	*	*custos:B	*	*	*
!	!	!	!	!LO:LB:g=original	!	!	!
!LO:TX:t=P:problem=kreska pseudotaktowa	!LO:MO:mod=-co-	!	!LO:MO:mod=.	!LO:TX:t=P:problem=kreska pseudotaktowa	!LO:MO:mod=.	!LO:TX:t=P:problem=kreska pseudotaktowa	!
2GG/	-te-	1G/	-co-	2B\	Pen-	2d\	-es
!	!	!	!	!	!LO:MO:mod=-es	!	!
2C/	.	.	.	2c\	-te-	2e\	Pen-
!	!	!LO:TX:t=P:problem=kreska pseudotaktowa	!	!	!LO:MO:null:mod=Pen-	!	!
2D/	.	2F/	.	4A\	.	2f\	-te-
!	!	!	!	!LO:TX:t=P:problem=kreska pseudotaktowa	!LO:MO:null:mod=-te-	!	!
.	.	.	.	4d\	.	.	.
=8-	=8-	=8-	=8-	=8-	=8-	=8-	=8-
*lig	*	*lig	*	*	*	*	*
!	!LO:MO:mod=.	!	!LO:MO:null:mod=-co-	!	!LO:MO:null:mod=-co-	!	!LO:MO:null:mod=-co-
1E\	co-	1G/	.	2.B\	.	2e\	.
*	*	*	*	*	*	*custos:g	*
!	!	!	!	!	!	!LO:LB:g=original	!LO:MO:mod=.
.	.	.	.	.	.	1g\	-co-
.	.	.	.	4c\	.	.	.
!	!	!	!	!	!LO:MO:mod=.	!	!
1D\	.	1A\	.	1d\	co-	.	.
!	!	!	!	!	!	!LO:TX:t=P:problem=kreska pseudotaktowa	!
!	!	!	!	!	!	!LO:SIC:v:o=2f\	!
.	.	.	.	.	.	2f#i	.
*Xlig	*	*Xlig	*	*	*	*	*
=9-	=9-	=9-	=9-	=9-	=9-	=9-	=9-
!LO:TX:t=P:problem=kreska pseudotaktowa	!	!LO:TX:t=P:problem=kreska pseudotaktowa	!	!LO:TX:t=P:problem=kreska pseudotaktowa	!	!LO:TX:t=P:problem=kreska pseudotaktowa	!
1GG/	-stes	1G/	-stes	1B\,<	-stes	1g\,<	-stes
*	*	*custos:G	*	*	*	*	*
!	!	!LO:LB:g=original	!	!	!	!	!
0C/	e-	0G/	e-	0c\	e-	0e\	e-
=10-	=10-	=10-	=10-	=10-	=10-	=10-	=10-
.	.	.	.	.	.	.	.
!LO:TX:t=P:problem=kreska pseudotaktowa	!	!LO:TX:t=P:problem=kreska pseudotaktowa	!	!LO:TX:t=P:problem=kreska pseudotaktowa	!	!LO:TX:t=P:problem=kreska pseudotaktowa	!
1AA/	rant	1A\	-rant	1c\	-rant	1e\	-rant
=11-	=11-	=11-	=11-	=11-	=11-	=11-	=11-
1D\	om-	1F/	om-	1A\	om-	1d\	o-
!LO:TX:t=P:problem=kreska pseudotaktowa	!	!LO:TX:t=P:problem=kreska pseudotaktowa	!	!LO:TX:t=P:problem=kreska pseudotaktowa	!	!LO:TX:t=P:problem=kreska pseudotaktowa	!
1C/	-nes	1G/	-nes	1c\	-nes	1e\	-mnes
=12-	=12-	=12-	=12-	=12-	=12-	=12-	=12-
1.F\	pa-	1.A\	pa-	1.c\	pa-	1.f\	pa-
!LO:TX:t=P:problem=kreska pseudotaktowa	!	!LO:TX:t=P:problem=kreska pseudotaktowa	!	!LO:TX:t=P:problem=kreska pseudotaktowa	!	!LO:TX:t=P:problem=kreska pseudotaktowa	!
2F\	-ri-	2A/	-ri-	2c\	-ri-	2f\	-ri-
=13-	=13-	=13-	=13-	=13-	=13-	=13-	=13-
2F\	-ter	2A/	-ter	2c\	-ter	2f\	-ter
1C/	in	1G/	in	1c\	in	1e\	in
!LO:TX:t=P:problem=kreska pseudotaktowa	!	!LO:TX:t=P:problem=kreska pseudotaktowa	!	!LO:TX:t=P:problem=kreska pseudotaktowa	!	!LO:TX:t=P:problem=kreska pseudotaktowa	!
2C/	e-	2G/	e-	2c\	e-	2e\	e-
=14-	=14-	=14-	=14-	=14-	=14-	=14-	=14-
!	!	!LO:SIC:v:o=2F/	!	!	!	!	!
2D/	-o-	2F#i	-o-	2A/	-o-	2d\	-o-
2C/	-dem	2G/	-dem	1c\	-dem	2e\	-dem
*custos:GG	*	*	*	*	*	*	*
!	!	!LO:TX:t=P:problem=kreska pseudotaktowa	!	!	!	!	!
!LO:LB:g=original	!	!	!	!	!	!	!
1GG/	lo-	1G/	lo-	.	.	1d\	lo-
!	!	!	!	!LO:TX:t=P:problem=kreska pseudotaktowa	!	!	!
.	.	.	.	2B\	lo-	.	.
*	*	*	*	*custos:c	*	*	*
!	!	!	!	!LO:LB:g=original	!	!	!
=15-	=15-	=15-	=15-	=15-	=15-	=15-	=15-
!LO:TX:t=P:problem=kreska pseudotaktowa	!	!	!	!	!	!LO:TX:t=P:problem=kreska pseudotaktowa	!
1C/	-co	2G,</	-co	2.c\	.	0e\	-co
.	.	2G/	et	.	.	.	.
.	.	.	.	4B\	.	.	.
2r	.	2.c\	su-	2A/	.	.	.
!	!	!	!	!LO:TX:t=P:problem=kreska pseudotaktowa	!	!	!
2C/	et	.	.	2G/	-co	.	.
!	!	!LO:TX:t=P:problem=kreska pseudotaktowa	!	!	!	!	!
.	.	4c\	-bi-	.	.	.	.
=16-	=16-	=16-	=16-	=16-	=16-	=16-	=16-
!	!LO:MO:mod=su-	!	!	!	!	!	!
2.F\	Su-	2A,</	-to	0r	.	2r	.
*	*	*	*ij	*	*	*	*
.	.	2A/	et	.	.	2c/	et
!LO:TX:t=P:problem=kreska pseudotaktowa	!	!	!	!	!	!	!
4F\	-bi-	.	.	.	.	.	.
*	*	*	*	*	*	*custos:f	*
!	!	!	!	!	!	!LO:LB:g=original	!LO:MO:mod=su-
2D,</	-to	2.d\	su-	.	.	2.f\	Su-
2D/	et	.	.	.	.	.	.
!	!	!	!	!	!	!LO:TX:t=P:problem=kreska pseudotaktowa	!
.	.	4d\	-bi-	.	.	4f\	-bi-
*	*	*custos:B	*	*	*	*	*
!	!	!LO:LB:g=original	!	!	!	!	!
=17-	=17-	=17-	=17-	=17-	=17-	=17-	=17-
!	!	!	!	!LO:TX:t=P:problem=kreska pseudotaktowa	!	!	!
2.G\	su-	2B,<\	-to	1r	.	2d,<\	-to
*	*	*	*	*	*	*	*ij
!	!	!	!	!	!	!LO:TX:t=P:problem=kreska pseudotaktowa	!
.	.	1G/	et	.	.	2d\	et
!LO:TX:t=P:problem=kreska pseudotaktowa	!	!	!	!	!	!	!
4G\	-bi-	.	.	.	.	.	.
!	!	!	!	!	!	!	!LO:MO:mod=su-
2E,<\	-to	.	.	2r	.	2.g\	Su-
*	*ij	*	*	*	*	*	*
!	!	!LO:TX:t=P:problem=kreska pseudotaktowa, między nutą a kropką	!	!	!	!	!
1C/	et	2.c\	su-	2G/	et	.	.
.	.	.	.	.	.	4g\	-bi-
=18-	=18-	=18-	=18-	=18-	=18-	=18-	=18-
!	!	!	!	!	!LO:MO:mod=su-	!	!
.	.	.	.	2.c\	Su-	2e,<\	-to
.	.	4c\	-bi-	.	.	.	.
!	!	!LO:TX:t=P:problem=kreska pseudotaktowa	!	!	!	!	!
2.F\	su-	2A,</	-to	.	.	1c\	et
!	!	!	!	!LO:TX:t=P:problem=kreska pseudotaktowa	!	!	!
.	.	.	.	4c\	-bi-	.	.
.	.	2A/	et	2A,</	-to	.	.
4F\	-bi-	.	.	.	.	.	.
*	*	*	*	*	*ij	*	*
!LO:TX:t=P:problem=kreska pseudotaktowa	!	!	!	!LO:TX:t=P:problem=kreska pseudotaktowa	!	!LO:TX:t=P:problem=kreska pseudotaktowa, między nutą a kropką	!LO:MO:mod=su-
2D,</	-to	2.d\	su-	2A/	et	2.f\	Su-
=19-	=19-	=19-	=19-	=19-	=19-	=19-	=19-
!	!	!	!	!	!LO:MO:mod=su-	!	!
2D/	et	.	.	2.d\	Su-	.	.
.	.	4d\	-bi-	.	.	4f\	-bi-
!	!	!	!	!	!	!LO:TX:t=P:problem=kreska pseudotaktowa	!
2.G\	su-	1B\,<	-to	.	.	2d\	-to
*	*	*	*Xij	*	*	*	*Xij
.	.	.	.	4d\	-bi-	.	.
.	.	.	.	2B,<\	-to	1e\	fa-
4G\	-bi-	.	.	.	.	.	.
!LO:TX:t=P:problem=kreska pseudotaktowa	!	!	!	!LO:TX:t=P:problem=kreska pseudotaktowa	!	!	!
2C/	-to	1c\	fa-	2G/	fa-	.	.
*custos:F	*Xij	*	*	*	*	*	*
!LO:LB:g=original	!	!	!	!	!	!	!
=20-	=20-	=20-	=20-	=20-	=20-	=20-	=20-
!	!	!	!	!	!	!LO:TX:t=P:problem=kreska pseudotaktowa	!
1F\	fa-	.	.	2A/	-ctus	1f\	-ctus
!	!	!	!	!LO:TX:t=P:problem=kreska pseudotaktowa	!	!	!
.	.	1A\	-ctus	2F/	est	.	.
!	!	!	!	!	!LO:MO:mod=so-	!	!
2F\	-ctus	.	.	2A/	So-	1c\	est
!LO:TX:t=P:problem=kreska pseudotaktowa	!	!LO:TX:t=P:problem=kreska pseudotaktowa	!LO:MO:null:mod=est	!	!	!	!
2E\	eſt	2G/	.	1c\	.	.	.
=21-	=21-	=21-	=21-	=21-	=21-	=21-	=21-
!	!	!	!LO:MO:mod=so-	!	!	!	!LO:MO:mod=so-
1D\	so-	1F/	est	.	.	1f\	So-
!	!	!	!	!LO:TX:t=P:problem=kreska pseudotaktowa	!	!	!
.	.	.	.	2B\	.	.	.
!	!LO:MO:null:mod=-nus	!	!LO:MO:mod=-nus	!LO:TX:t=P:problem=kreska pseudotaktowa	!	!LO:TX:t=P:problem=kreska pseudotaktowa	!
4C/	.	2.G/	so-	1c\	-nus	1e\	-nus
4D/	.	.	.	.	.	.	.
4E\	.	.	.	.	.	.	.
!LO:TX:t=P:problem=kreska pseudotaktowa	!	!LO:TX:t=P:problem=kreska pseudotaktowa	!	!	!	!	!
4F\	.	4A/	.	.	.	.	.
*	*	*	*	*custos:G	*	*	*
!	!	!	!	!LO:LB:g=original	!	!	!
=22-	=22-	=22-	=22-	=22-	=22-	=22-	=22-
!	!LO:MO:mod=.	!	!LO:MO:mod=.	!	!	!	!
2G\	-nus	2B,<\	-nus	2r	.	2d\	de
*	*	*	*	*	*	*custos:e	*
!	!	!	!	!	!	!LO:LB:g=original	!
!	!	!	!	!LO:TX:t=P:problem=kreska pseudotaktowa	!LO:MO:mod=so-	!	!
2.C/	de	2c\	de	2G/	So-	2.e\	cae-
*	*	*lig	*	*	*	*	*
.	.	1G/	cae-	2c\	-nus	.	.
4D/	.	.	.	.	.	4f\	.
!LO:TX:t=P:problem=kreska pseudotaktowa	!	!	!	!LO:TX:t=P:problem=kreska pseudotaktowa	!	!	!
2E\	.	.	.	2B\	de	1g\	.
=23-	=23-	=23-	=23-	=23-	=23-	=23-	=23-
1D\	cae-	1A\	.	1d\	cae-	.	.
!	!	!	!	!	!	!LO:SIC:v:o=2f\	!
!	!	!	!	!	!	!LO:TX:t=P:problem=kreska pseudotaktowa	!
.	.	.	.	.	.	2f#i	.
*	*	*Xlig	*	*	*	*	*
!	!	!LO:TX:t=P:problem=kreska pseudotaktowa	!	!LO:TX:t=P:problem=kreska pseudotaktowa	!	!	!
2GG,</	-lo	1G/	-lo	1d\	-lo	2g\	-lo
!LO:TX:t=P:problem=kreska pseudotaktowa	!LO:MO:mod=al-	!	!	!	!	!	!
2G\	Al-	.	.	.	.	2d\	al-
*	*	*custos:c	*	*	*	*	*
!	!	!LO:LB:g=original	!	!	!	!	!
=24-	=24-	=24-	=24-	=24-	=24-	=24-	=24-
!	!	!	!LO:MO:mod=al-	!	!	!	!
2C/	-le-	0c\	Al-	2r	.	2e\	-le-
!	!	!	!	!	!LO:MO:mod=al-	!LO:TX:t=P:problem=kreska pseudotaktowa	!
2.F\	-lu-	.	.	2.A/	Al-	2f\	-lu-
.	.	.	.	.	.	4c\	-ia
!	!	!	!	!	!LO:MO:mod=.	!	!
4E\	.	.	.	4B\	-le-	4d\	.
!	!LO:MO:mod=.	!	!	!LO:TX:t=P:problem=kreska pseudotaktowa	!LO:MO:mod=.	!	!
4C/	-ia	.	.	2c\	-lu-	4e\	.
!LO:TX:t=P:problem=kreska pseudotaktowa	!	!	!	!	!	!	!
4D/	.	.	.	.	.	4f\	.
=25-	=25-	=25-	=25-	=25-	=25-	=25-	=25-
!	!	!LO:TX:t=P:problem=kreska pseudotaktowa	!	!	!LO:MO:mod=-le-	!	!
4E\	.	0B\	-le-	4G\	-ia	2g\	.
4F\	.	.	.	4A\	.	.	.
!	!	!	!	!	!	!LO:TX:t=P:problem=kreska pseudotaktowa	!LO:MO:null:mod=al-
2G\	.	.	.	4B\	.	2d\	.
.	.	.	.	4c\	.	.	.
*custos:GG	*ij	*	*	*	*	*	*
!LO:LB:g=original	!LO:MO:mod=.	!	!	!	!	!	!LO:MO:null:mod=-le-
4GG/	Al-	.	.	2d,<\	.	2.g\	.
4AA/	.	.	.	.	.	.	.
!	!	!	!	!LO:TX:t=P:problem=kreska pseudotaktowa	!LO:MO:null:mod=-lu-	!	!
4BB/	.	.	.	2G/	.	.	.
!LO:TX:t=P:problem=kreska pseudotaktowa	!	!	!	!	!	!	!
4C/	.	.	.	.	.	8f\L	.
!	!	!	!	!	!	!LO:TX:t=P:problem=kreska pseudotaktowa	!
.	.	.	.	.	.	8e\J	.
=26-	=26-	=26-	=26-	=26-	=26-	=26-	=26-
!	!	!	!	!	!LO:MO:null:mod=-ia	!	!
2D/	.	0A\	-lu-	2d,<\	.	2f\	.
*	*	*	*	*	*ij	*	*
!	!LO:MO:mod=.	!	!	!LO:TX:t=P:problem=kreska pseudotaktowa	!LO:MO:mod=al-	!	!LO:MO:null:mod=-lu-
2.AA/	-le-	.	.	2c\	Al-	2.e\	.
.	.	.	.	2c\	-le-	.	.
4BB/	.	.	.	.	.	4d\	.
!	!	!	!	!LO:TX:t=P:problem=kreska pseudotaktowa	!	!	!
4C/	.	.	.	2c\	-lu-	4e\	.
!LO:TX:t=P:problem=kreska pseudotaktowa	!	!	!	!	!	!	!
4D/	.	.	.	.	.	4f\	.
*	*	*	*	*	*	*custos:g	*
!	!	!	!	!	!	!LO:LB:g=original	!
=27-	=27-	=27-	=27-	=27-	=27-	=27-	=27-
!	!	!LO:TX:a:mod= :t=4	!	!	!	!	!
!	!	!LO:TX:t=P:problem=kreska pseudotaktowa	!	!	!	!	!
2E\	.	00G\	-ia	2B,<\	-ia	2g,<\	.
*	*	*	*	*	*Xij	*	*
!	!LO:MO:mod=.	!	!	!	!	!	!LO:MO:mod=-ia
1C/	-lu-	.	.	1e\	al-	2g\	al-
!	!	!	!	!	!	!	!LO:MO:mod=al-
.	.	.	.	.	.	2c/	-le-
!LO:TX:t=P:problem=kreska pseudotaktowa	!	!	!	!	!	!LO:TX:t=P:problem=kreska pseudotaktowa	!LO:MO:mod=-le-
2BB/	.	.	.	2d\	-le-	2d\	-lu-
*	*	*	*	*custos:c	*	*	*
!	!	!	!	!LO:LB:g=original	!	!	!
=28-	=28-	=28-	=28-	=28-	=28-	=28-	=28-
!	!	!	!	!	!	!	!LO:MO:mod=-lu-
1C/	.	.	.	4c\	-lu-	2e\	-ia
.	.	.	.	4d\	.	.	.
.	.	.	.	4e\	.	2.c/	.
!	!	!	!	!LO:TX:t=P:problem=kreska pseudotaktowa	!	!	!
.	.	.	.	4c\	.	.	.
1GG/	.	.	.	1d\	.	.	.
.	.	.	.	.	.	8B/L	.
.	.	.	.	.	.	8A/J	.
.	.	.	.	.	.	2B/	.
=29-	=29-	=29-	=29-	=29-	=29-	=29-	=29-
!LO:TX:t=P:problem=kreska pseudotaktowa	!	!	!	!	!	!LO:TX:t=P:problem=kreska pseudotaktowa	!LO:MO:null:mod=-ia
1C/	-ia	2r	.	2G/	-ia	1c\	.
*	*Xij	*	*	*	*ij	*	*
!	!	!	!LO:SIC:v:o=tan-	!LO:TX:t=P:problem=kreska pseudotaktowa	!	!	!
.	.	1G/	tam-	2c\	al-	.	.
2r	.	.	.	2B\	-le-	1r	.
!	!LO:SIC:v:o=tan-	!LO:TX:t=P:problem=kreska pseudotaktowa	!	!	!	!	!
1C/	tam-	2G/	-quam	2c\	-lu-	.	.
=30-	=30-	=30-	=30-	=30-	=30-	=30-	=30-
!	!	!	!	!LO:TX:t=P:problem=kreska pseudotaktowa	!	!	!
.	.	2.c\	spi-	1G/	-ia	2r	.
*	*	*	*	*	*Xij	*	*
!LO:TX:t=P:problem=kreska pseudotaktowa	!	!	!	!	!	!LO:TX:t=P:problem=kreska pseudotaktowa	!LO:SIC:v:o=tan-
2C/	-quam	.	.	.	.	2c/	tam-
!	!	!LO:TX:t=P:problem=kreska pseudotaktowa	!	!	!	!	!
.	.	4c\	-ri-	.	.	.	.
!	!LO:MO:mod=spi-	!	!	!	!	!	!
2.F\	Spi-	2A/	-tus	0r	.	2c/	-quam
!	!	!	!LO:MO:mod=ve-	!	!	!	!LO:MO:mod=spi-
.	.	1d\	Ve-	.	.	2.f\	Spi-
!LO:TX:t=P:problem=kreska pseudotaktowa	!	!	!	!	!	!	!
4F\	-ri-	.	.	.	.	.	.
=31-	=31-	=31-	=31-	=31-	=31-	=31-	=31-
2D/	-tus	.	.	.	.	.	.
.	.	.	.	.	.	4f\	-ri-
!	!LO:MO:mod=ve-	!LO:TX:t=P:problem=kreska pseudotaktowa	!	!	!	!LO:TX:t=P:problem=kreska pseudotaktowa	!
1G\	Ve-	2d\	-he-	.	.	2d\	-tus
!	!	!	!	!	!	!	!LO:MO:mod=ve-
.	.	1B\	-men-	1r	.	1.g\	Ve-
*custos:G	*	*	*	*	*	*	*
!LO:TX:t=P:problem=kreska pseudotaktowa	!	!	!	!	!	!	!
!LO:LB:g=original	!	!	!	!	!	!	!
2G\	-he-	.	.	.	.	.	.
=32-	=32-	=32-	=32-	=32-	=32-	=32-	=32-
!	!	!LO:TX:t=P:problem=kreska pseudotaktowa	!	!	!	!	!
1E\	-men-	1G/	-tis	2r	.	.	.
!	!	!	!	!LO:TX:t=P:problem=kreska pseudotaktowa	!LO:SIC:v:o=tan-	!	!
.	.	.	.	2G/	tam-	2g\	-he-
!LO:TX:t=P:problem=kreska pseudotaktowa	!	!	!	!	!	!	!
1C/	-tis	2r	.	2G/	-quam	1.e\	-men-
*	*ij	*	*ij	*	*	*	*
!	!	!	!LO:SIC:v:o=tan-	!	!LO:MO:mod=spi-	!	!
.	.	2G/	tam-	2.c\	Spi-	.	.
=33-	=33-	=33-	=33-	=33-	=33-	=33-	=33-
2r	.	2A/	-quam	.	.	.	.
.	.	.	.	4c\	-ri-	.	.
!	!LO:SIC:v:o=tan-	!	!	!LO:TX:t=P:problem=kreska pseudotaktowa	!	!LO:TX:t=P:problem=kreska pseudotaktowa	!
1D\	tam-	2.F/	spi-	2A/	-tus	2d\	-tis
*	*	*	*	*	*	*custos:d	*
!	!	!	!	!	!LO:MO:mod=ve-	!LO:LB:g=original	!
.	.	.	.	2d\	Ve-	2r	.
.	.	4F/	-ri-	.	.	.	.
*	*	*custos:A	*	*	*	*	*ij
!LO:TX:t=P:problem=kreska pseudotaktowa	!	!LO:TX:t=P:problem=kreska pseudotaktowa	!	!	!	!LO:TX:t=P:problem=kreska pseudotaktowa	!
!	!	!LO:LB:g=original	!	!	!	!	!LO:SIC:v:o=tan-
2D/	-quam	2A/	-tus	2d\	-he-	2d\	tam-
=34-	=34-	=34-	=34-	=34-	=34-	=34-	=34-
!	!LO:MO:mod=spi-	!	!LO:MO:mod=ve-	!LO:TX:t=P:problem=kreska pseudotaktowa	!	!	!
2.G\	Spi-	2G/	Ve-	1B\	-men-	2d\	-quam
!	!	!	!	!	!	!LO:TX:t=P:problem=kreska pseudotaktowa, między nutą a kropką	!LO:MO:mod=spi-
.	.	2.B\	-he-	.	.	2.g\	Spi-
4G\	-ri-	.	.	.	.	.	.
2E\	-tus	.	.	1G/	-tis	.	.
!	!	!	!LO:MO:mod=.	!	!	!	!
.	.	8A\L	-men-	.	.	4g\	-ri-
.	.	8B\J	.	.	.	.	.
!LO:TX:t=P:problem=kreska pseudotaktowa, między nutą a kropką	!LO:MO:mod=ve-	!	!	!	!	!	!
2.C/	Ve-	4c\	.	.	.	1e\	-tus
!	!	!LO:TX:t=P:problem=kreska pseudotaktowa	!	!	!	!	!
.	.	4d\	.	.	.	.	.
=35-	=35-	=35-	=35-	=35-	=35-	=35-	=35-
!	!	!	!	!	!LO:MO:mod=spi-	!	!
.	.	1e\	.	2.c\	Spi-	.	.
!	!LO:MO:mod=.	!	!	!	!	!	!
4D/	he-	.	.	.	.	.	.
!	!	!	!	!	!	!	!LO:MO:mod=ve-
4E\	.	.	.	.	.	1g\	Ve-
4F\	.	.	.	4c\	-ri-	.	.
*	*	*	*	*custos:B	*	*	*
!	!LO:MO:mod=.	!	!LO:MO:null:mod=-men-	!LO:LB:g=original	!	!	!
2G\	-men-	2d\	.	2B\	-tus	.	.
!	!	!	!	!	!	!LO:SIC:v:o=2f\	!
!LO:TX:t=P:problem=kreska pseudotaktowa	!LO:MO:null:mod=-he-	!	!	!	!LO:MO:mod=ve-	!LO:TX:t=P:problem=kreska pseudotaktowa	!
2A\	.	1c\	.	4c\	Ve-	2f#i	-he-
!	!	!	!	!LO:TX:t=P:problem=kreska pseudotaktowa	!	!	!
.	.	.	.	4c\	-he-	.	.
=36-	=36-	=36-	=36-	=36-	=36-	=36-	=36-
!	!LO:MO:null:mod=-men-	!	!	!	!	!	!
1G\	.	.	.	1d\	-men-	1g\	-men-
!	!	!LO:TX:t=P:problem=kreska pseudotaktowa	!	!	!	!	!
.	.	2B\	.	.	.	.	.
!LO:TX:t=P:problem=kreska pseudotaktowa	!	!	!	!LO:TX:t=P:problem=kreska pseudotaktowa	!	!LO:TX:t=P:problem=kreska pseudotaktowa	!
0C/	-tis	2c,<\	-tis	0.c\	-tis	0e\	-tis
*	*Xij	*	*Xij	*	*	*	*Xij
.	.	1G/	et	.	.	.	.
=37-	=37-	=37-	=37-	=37-	=37-	=37-	=37-
.	.	.	.	.	.	.	.
!	!	!LO:TX:t=P:problem=kreska pseudotaktowa	!	!	!	!	!
.	.	2G/	re-	.	.	.	.
2r	.	2A/	-ple-	.	.	2r	.
!	!	!LO:TX:t=P:problem=kreska pseudotaktowa	!LO:MO:mod=-vit	!	!	!	!
1C/	et	2G/	-uit	.	.	1e\	et
=38-	=38-	=38-	=38-	=38-	=38-	=38-	=38-
.	.	4E/	to-	00r	.	.	.
.	.	4F/	.	.	.	.	.
!LO:TX:t=P:problem=kreska pseudotaktowa	!	!	!	!	!	!LO:TX:t=P:problem=kreska pseudotaktowa	!
2C/	re-	4G/	.	.	.	2e\	re-
!	!	!LO:TX:t=P:problem=kreska pseudotaktowa	!	!	!	!	!
.	.	4E/	.	.	.	.	.
*custos:D	*	*	*	*	*	*	*
!LO:LB:g=original	!	!	!	!	!	!	!
2D/	-ple-	2F/	.	.	.	2d\	-ple-
!LO:TX:t=P:problem=kreska pseudotaktowa	!LO:MO:mod=-vit	!	!	!	!	!LO:TX:t=P:problem=kreska pseudotaktowa	!LO:MO:mod=-vit
2C/	-uit	2G/	-tam	.	.	2e\	-uit
*	*	*custos:A	*	*	*	*	*
!	!	!LO:LB:g=original	!	!	!	!	!
=39-	=39-	=39-	=39-	=39-	=39-	=39-	=39-
2F\	to-	2A/	do-	.	.	2c/	to-
!LO:TX:t=P:problem=kreska pseudotaktowa	!	!	!	!	!	!LO:TX:t=P:problem=kreska pseudotaktowa	!
2E\	-tam	1G/	.	.	.	2c/	-tam
*	*	*	*	*	*	*lig	*
1D\	do-	.	.	.	.	1d\	do-
.	.	2F/	.	.	.	.	.
=40-	=40-	=40-	=40-	=40-	=40-	=40-	=40-
!LO:TX:t=P:problem=kreska pseudotaktowa	!	!LO:TX:t=P:problem=kreska pseudotaktowa	!	!	!	!	!
1C/	-mum	1G/	-mum	2r	.	1e\	.
.	.	.	.	1c\	et	.	.
*	*ij	*	*ij	*	*	*Xlig	*
!	!	!	!	!	!	!LO:TX:t=P:problem=kreska pseudotaktowa	!
2r	.	2r	.	.	.	1A/	-mum
!	!	!	!	!LO:TX:t=P:problem=kreska pseudotaktowa	!	!	!
1F\	et	1A\	et	2c\	re-	.	.
*	*	*	*	*	*	*custos:f	*
!	!	!	!	!	!	!LO:LB:g=original	!
=41-	=41-	=41-	=41-	=41-	=41-	=41-	=41-
.	.	.	.	2d\	-ple-	0r	.
!LO:TX:t=P:problem=kreska pseudotaktowa	!	!LO:TX:t=P:problem=kreska pseudotaktowa	!	!	!LO:MO:mod=-vit	!	!
2F\	re-	2A/	re-	2c\	-uit	.	.
2G\	-ple-	2B\	-ple-	2B\	to-	.	.
!	!LO:MO:mod=-vit	!LO:TX:t=P:problem=kreska pseudotaktowa	!LO:MO:mod=-vit	!LO:TX:t=P:problem=kreska pseudotaktowa	!	!	!
2F\	-uit	2c\	-uit	2A/	-tam	.	.
=42-	=42-	=42-	=42-	=42-	=42-	=42-	=42-
!	!	!	!	!	!	!LO:TX:t=P:problem=kreska pseudotaktowa	!
2E\	to-	2G/	to-	2B\	do-	1r	.
!LO:TX:t=P:problem=kreska pseudotaktowa	!	!	!LO:MO:null:mod=-tam	!	!	!	!
2C/	-tam	1A\	.	1c\	.	.	.
!	!	!	!	!	!	!	!LO:MO:mod=u-
1D\	do-	.	.	.	.	1.f\	V-
.	.	4G/	.	2B\	.	.	.
!	!	!LO:TX:t=P:problem=kreska pseudotaktowa	!	!	!	!	!
.	.	4F/	.	.	.	.	.
=43-	=43-	=43-	=43-	=43-	=43-	=43-	=43-
!LO:TX:t=P:problem=kreska pseudotaktowa	!	!	!LO:MO:mod=.	!LO:TX:t=P:problem=kreska pseudotaktowa	!	!	!
1C/	-mum	2G/	-tam	1c\	.	.	.
*	*Xij	*	*	*	*	*	*
!	!	!	!	!	!	!LO:TX:t=P:problem=kreska pseudotaktowa	!
.	.	1c\	do-	.	.	2e\	-bi
!LO:TX:t=P:problem=kreska pseudotaktowa	!	!	!	!LO:TX:t=P:problem=kreska pseudotaktowa	!	!	!
1r	.	.	.	0G/	mum	1d\	e-
!	!	!LO:TX:t=P:problem=kreska pseudotaktowa	!	!	!	!	!
.	.	2B\	.	.	.	.	.
=44-	=44-	=44-	=44-	=44-	=44-	=44-	=44-
!	!LO:MO:mod=u-	!	!	!	!	!	!
1.C/	V-	2c,<\	-mum	.	.	2.c/	-rant
*	*	*	*Xij	*	*	*	*
.	.	2G/	to-	.	.	.	.
!	!	!	!	!	!	!LO:TX:t=P:problem=kreska pseudotaktowa	!
.	.	.	.	.	.	4d\	.
.	.	2E/	-tam	1r	.	2e,<\	.
!LO:TX:t=P:problem=kreska pseudotaktowa	!	!	!LO:MO:mod=do-	!	!	!	!LO:MO:mod=se-
2BB/	-bi	1G/	Do-	.	.	2d\	Se-
*custos:AA	*	*	*	*	*	*	*
!LO:PB:g=original	!	!	!	!	!	!	!
=45-	=45-	=45-	=45-	=45-	=45-	=45-	=45-
1AA/	e-	.	.	2r	.	2.c/	-den-
*	*	*custos:F	*	*custos:c	*	*	*
!	!	!LO:TX:t=P:problem=kreska pseudotaktowa	!	!	!	!	!
!	!	!LO:LB:g=original	!	!LO:PB:g=original	!LO:MO:mod=u-	!	!
.	.	2F/	.	1c\	V-	.	.
!	!	!	!	!	!	!LO:TX:t=P:problem=kreska pseudotaktowa	!
.	.	.	.	.	.	4d\	.
2GG/	-rant	1G/	-mum	.	.	2e\	.
!LO:TX:t=P:problem=kreska pseudotaktowa	!	!	!	!LO:TX:t=P:problem=kreska pseudotaktowa	!	!LO:TX:t=P:problem=kreska pseudotaktowa	!
2GG/	se-	.	.	2B\	-bi	2d\	tes
=46-	=46-	=46-	=46-	=46-	=46-	=46-	=46-
!	!	!	!LO:MO:mod=u-	!	!	!	!
4AA/	-den-	1.c\	V-	1A\	e-	2r	.
4BB/	.	.	.	.	.	.	.
!	!	!	!	!	!	!	!LO:MO:mod=u-
4C/	.	.	.	.	.	1e\	V-
!LO:TX:t=P:problem=kreska pseudotaktowa	!	!	!	!	!	!	!
4D/	.	.	.	.	.	.	.
4E\	.	.	.	2G/	-rant	.	.
4F\	.	.	.	.	.	.	.
!	!	!LO:TX:t=P:problem=kreska pseudotaktowa	!	!LO:TX:t=P:problem=kreska pseudotaktowa	!LO:MO:mod=se-	!LO:TX:t=P:problem=kreska pseudotaktowa	!
2.G\	.	2B,<\	-bi	2G/	Se-	2d\	-bi
=47-	=47-	=47-	=47-	=47-	=47-	=47-	=47-
.	.	1A\	e-	1D/	-den-	2.d\	e-
!LO:SIC:v:o=8F\L	!	!	!	!	!	!	!
8F#iL	.	.	.	.	.	.	.
8E\J	.	.	.	.	.	.	.
!LO:SIC:v:o=2F\	!	!	!	!	!	!	!
2F#i	.	.	.	.	.	.	.
!	!	!	!	!	!	!LO:TX:t=P:problem=kreska pseudotaktowa	!LO:MO:mod=.
.	.	.	.	.	.	4c/	-rant
!LO:TX:t=P:problem=kreska pseudotaktowa	!	!	!	!	!	!	!
1G\	-tes	2G/	-rant	2G/	-tes	4B/	.
.	.	.	.	.	.	4A/	.
!	!	!LO:TX:t=P:problem=kreska pseudotaktowa	!LO:MO:mod=se-	!	!LO:MO:mod=u-	!LO:TX:t=P:problem=kreska pseudotaktowa	!
.	.	2G/	Se-	2.d\	V-	2B/	.
=48-	=48-	=48-	=48-	=48-	=48-	=48-	=48-
!	!	!	!	!	!	!	!LO:MO:null:mod=-rant
2r	.	2.d\	-den-	.	.	2G/	.
.	.	.	.	4c\	.	.	.
*	*ij	*	*	*	*	*custos:d	*ij
!	!LO:MO:mod=u-	!	!	!	!	!LO:LB:g=original	!LO:MO:mod=u-
1G\	V-	.	.	4B\	.	1d\	V-
!	!	!	!	!LO:TX:t=P:problem=kreska pseudotaktowa	!	!	!
.	.	4c\	.	4A\	.	.	.
.	.	2B\	.	2G/	.	.	.
!LO:TX:t=P:problem=kreska pseudotaktowa	!	!LO:TX:t=P:problem=kreska pseudotaktowa	!	!LO:TX:t=P:problem=kreska pseudotaktowa	!	!LO:TX:t=P:problem=kreska pseudotaktowa	!
2F\	-bi	2A/	.	2A/	-bi	2d\	-bi
=49-	=49-	=49-	=49-	=49-	=49-	=49-	=49-
1E\	e-	2G,</	-tes	2B\	e-	2e\	e-
*	*	*	*ij	*	*	*	*
!	!	!LO:TX:t=P:problem=kreska pseudotaktowa	!LO:MO:mod=u-	!	!	!	!
.	.	2B\	V-	2G/	-rant	2g\	-rant
*	*	*	*	*	*	*	*Xij
!	!	!	!	!LO:TX:t=P:problem=kreska pseudotaktowa	!LO:MO:mod=se-	!	!LO:MO:mod=se-
2D/	-rant	2d\	-bi	1A\	Se-	2f\	Se-
!LO:TX:t=P:problem=kreska pseudotaktowa	!	!LO:TX:t=P:problem=kreska pseudotaktowa	!	!	!	!LO:TX:t=P:problem=kreska pseudotaktowa, między nutą a kropką	!
2AA/	se-	2c\	e-	.	.	2.e\	-den-
=50-	=50-	=50-	=50-	=50-	=50-	=50-	=50-
*lig	*	*	*	*	*	*	*
!	!	!	!	!	!LO:MO:null:mod=-den-	!	!
1E\	-den-	2B\	-rant	4G\	.	.	.
.	.	.	.	4A\	.	4f\	.
!	!	!	!LO:MO:mod=se-	!	!	!	!
.	.	2G/	Se-	4B\	.	1g\	.
!	!	!	!	!LO:TX:t=P:problem=kreska pseudotaktowa	!	!	!
.	.	.	.	4c\	.	.	.
!	!	!LO:TX:t=P:problem=kreska pseudotaktowa	!	!	!	!	!
1D\	.	1A\	-den-	1d\	.	.	.
!	!	!	!	!	!	!LO:SIC:v:o=2f\	!
!	!	!	!	!	!	!LO:TX:t=P:problem=kreska pseudotaktowa	!
.	.	.	.	.	.	2f#i	.
*Xlig	*	*	*	*	*	*	*
=51-	=51-	=51-	=51-	=51-	=51-	=51-	=51-
!	!	!	!	!	!LO:MO:mod=-tes	!	!
2GG/	-tes	2G,</	-tes	2.B\	-den-	2g,<\	-tes
*custos:G	*Xij	*custos:G	*Xij	*	*	*	*
!LO:LB:g=original	!	!LO:PB:g=original	!	!	!	!	!
!LO:TX:t=P:problem=kreska pseudotaktowa	!LO:MO:mod=al-	!LO:TX:t=P:problem=kreska pseudotaktowa	!LO:MO:mod=al-	!	!	!	!LO:MO:mod=al-
2G\	Al-	2G/	Al-	.	.	2d\	Al-
.	.	.	.	4c\	.	.	.
*	*	*	*	*custos:d	*	*	*
!	!	!	!	!LO:LB:g=original	!LO:MO:mod=.	!	!
2D/	-le-	1A\	-le-	2d\	-tes	1f\	-le-
!	!	!	!	!	!LO:MO:mod=al-	!	!
2F\	-lu-	.	.	2.c\	Al-	.	.
=52-	=52-	=52-	=52-	=52-	=52-	=52-	=52-
!	!	!	!LO:MO:mod=.	!	!	!LO:TX:t=P:problem=kreska pseudotaktowa	!
4C/	-ia	1c\	-lu-	.	.	1e\	-lu-
!	!	!	!	!	!LO:MO:mod=.	!	!
4D/	.	.	.	4B\	-le-	.	.
!	!	!	!	!	!LO:MO:mod=.	!	!
4E\	.	.	.	4G\	-lu-	.	.
!LO:TX:t=P:problem=kreska pseudotaktowa	!	!	!	!	!	!	!
4F\	.	.	.	4A\	.	.	.
!	!	!LO:TX:t=P:problem=kreska pseudotaktowa	!LO:MO:mod=-lu-	!	!	!	!
2G,<\	.	1B\	-ia	4B\	.	2d\	-ia
.	.	.	.	4c\	.	.	.
!	!	!	!LO:MO:null:mod=*null	!	!	!	!
*	*ij	*	*ij	*	*	*	*ij
!	!LO:MO:mod=al-	!	!	!	!	!	!LO:MO:mod=al-
2GG/	Al-	.	.	1d\	.	2g\	Al-
=53-	=53-	=53-	=53-	=53-	=53-	=53-	=53-
!	!	!	!LO:MO:mod=-ia	!	!	!	!
2D/	-le-	1A\	Al-	.	.	2f\	-le-
!LO:TX:t=P:problem=kreska pseudotaktowa	!	!	!	!LO:TX:t=P:problem=kreska pseudotaktowa	!LO:MO:mod=-le-	!LO:TX:t=P:problem=kreska pseudotaktowa	!
2D/	-lu-	.	.	2d\	-ia	2d\	-lu-
!	!	!	!LO:MO:null:mod=*ij	!	!	!	!
*	*	*	*null	*	*	*	*
!	!	!LO:TX:t=P:problem=kreska pseudotaktowa	!LO:MO:mod=al-	!	!LO:MO:null:mod=-lu-	!LO:TX:t=P:problem=kreska pseudotaktowa	!
2C,</	-ia	1c\	-le-	2G,</	.	1e\	-ia
*	*	*	*	*	*	*	*Xij
!	!LO:MO:mod=al-	!	!	!LO:TX:t=P:problem=kreska pseudotaktowa	!LO:MO:mod=.	!	!
2AA/	Al-	.	.	2A/	Al-	.	.
!	!	!	!	!	!	!LO:PB:g=original	!
=54-	=54-	=54-	=54-	=54-	=54-	=54-	=54-
!	!	!	!LO:MO:mod=-le-	!	!LO:MO:null:mod=-ia	!	!
2.E\	-le-	1B\	-lu-	2B\	.	2r	.
!	!	!	!	!LO:TX:t=P:problem=kreska pseudotaktowa	!LO:MO:null:mod=al-	!LO:TX:t=P:problem=kreska pseudotaktowa	!LO:MO:mod=al-
.	.	.	.	2G/	.	2e\	Al-
!LO:TX:t=P:problem=kreska pseudotaktowa	!LO:MO:mod=.	!	!	!	!	!	!
4D\	-lu-	.	.	.	.	.	.
!	!LO:MO:mod=.	!LO:TX:t=P:problem=kreska pseudotaktowa	!LO:MO:mod=-lu-	!	!LO:MO:null:mod=-le-	!	!
2C/	-ia	1A\	-ia	2c\	.	2e\	-le-
!	!LO:MO:mod=-lu-	!	!	!LO:TX:t=P:problem=kreska pseudotaktowa	!LO:MO:null:mod=-lu-	!	!
2D/	Al-	.	.	2A/	.	2f\	-lu-
=55-	=55-	=55-	=55-	=55-	=55-	=55-	=55-
!	!LO:MO:mod=-ia	!	!LO:MO:mod=-ia	!	!LO:MO:null:mod=-ia	!	!
2GG/	-le-	1G/	Al-	2B\	.	2g\	-ia
*	*	*	*	*	*	*	*ij
!	!LO:MO:mod=al-	!	!	!	!LO:MO:mod=al-	!	!
2.C/	-lu-	.	.	2.c\	-le-	1e\	Al-
!	!	!LO:TX:t=P:problem=kreska pseudotaktowa	!LO:MO:mod=al-	!	!	!	!
.	.	1c\	-le-	.	.	.	.
!	!	!	!	!	!LO:MO:null:mod=-le-	!	!
4D/	.	.	.	4B\	.	.	.
*custos:E	*	*	*	*	*	*	*
!LO:LB:g=original	!	!	!	!	!	!	!
!	!LO:MO:mod=.	!	!	!LO:TX:t=P:problem=kreska pseudotaktowa, między nutą a kropką	!	!LO:TX:t=P:problem=kreska pseudotaktowa	!
4E\	-ia	.	.	2.G/	-[lu]-	2e\	-le-
!LO:TX:t=P:problem=kreska pseudotaktowa	!	!	!	!	!	!	!
4F\	.	.	.	.	.	.	.
=56-	=56-	=56-	=56-	=56-	=56-	=56-	=56-
!	!LO:MO:mod=.	!	!LO:MO:mod=-le-	!	!	!	!
2G\	Al-	2B\	-lu-	.	.	2d\	-lu-
.	.	.	.	4A\	.	.	.
!	!	!	!LO:MO:null:mod=-lu-	!	!	!	!
2E\	-le-	2G/	.	4B\	.	2.g\	.
!	!	!	!	!LO:TX:t=P:problem=kreska pseudotaktowa	!	!	!
.	.	.	.	4c\	.	.	.
!LO:TX:t=P:problem=kreska pseudotaktowa	!	!	!	!	!	!	!
1D\	-lu-	1A\	.	2d\	.	.	.
!	!	!	!	!	!	!LO:SIC:v:o=8f\L	!
.	.	.	.	.	.	8f#iL	.
.	.	.	.	.	.	8e\J	.
!	!	!	!	!	!	!LO:SIC:v:o=2f\	!
!	!	!	!	!LO:TX:t=P:problem=kreska pseudotaktowa	!	!LO:TX:t=P:problem=kreska pseudotaktowa	!
.	.	.	.	2A/	-ia	2f#i	.
=57-	=57-	=57-	=57-	=57-	=57-	=57-	=57-
!	!	!	!	!	!LO:MO:null:mod=*ij	!	!
*	*	*	*	*	*null	*	*
!	!	!LO:SIC:o=[0Gl/;;	!LO:MO:mod=-ia.	!	!LO:MO:null:mod=al-	!LO:TX:t=P:problem=kreska pseudotaktowa	!
2GG/	-ia	[0G	-ia	2.d\	.	1g\	-ia
!	!LO:MO:mod=al-	!	!	!	!	!	!
2.G\	Al-	.	.	.	.	.	.
.	.	.	.	4c\	.	.	.
.	.	.	.	4B\	.	2r	.
4F\	.	.	.	4A\	.	.	.
*	*	*	*	*custos:G	*	*	*
!	!	!	!	!LO:LB:g=original	!	!	!
!	!	!	!	!LO:TX:t=P:problem=kreska pseudotaktowa	!	!	!LO:MO:mod=al-
4E\	.	.	.	2G/	.	2.g\	Al-
!LO:TX:t=P:problem=kreska pseudotaktowa	!	!	!	!	!	!	!
4D\	.	.	.	.	.	.	.
=58-	=58-	=58-	=58-	=58-	=58-	=58-	=58-
!	!	!	!	!	!LO:MO:null:mod=*null	!	!
*	*	*	*Xij	*	*ij	*	*
!	!LO:MO:mod=.	!	!	!	!LO:MO:mod=-le-	!	!
1.C/	-le-	0G/_	.	2.c\	Al-	.	.
.	.	.	.	.	.	4f\	.
.	.	.	.	.	.	4e\	.
!	!	!	!	!LO:TX:t=P:problem=kreska pseudotaktowa	!	!LO:TX:t=P:problem=kreska pseudotaktowa	!
.	.	.	.	4d\	.	4d\	.
.	.	.	.	2e\	.	2c/	.
!LO:TX:t=P:problem=kreska pseudotaktowa	!LO:MO:null:mod=-le-	!	!	!LO:TX:t=P:problem=kreska pseudotaktowa	!LO:MO:mod=.	!	!
2GG/	.	.	.	2d\	-le-	2B/	-le-
=59-	=59-	=59-	=59-	=59-	=59-	=59-	=59-
0C/	-lu-	0G/_	.	0c\	-lu-	0e\	-lu-
=60-	=60-	=60-	=60-	=60-	=60-	=60-	=60-
!	!LO:MO:mod=-ia.	!LO:SIC:o=0G/]	!	!LO:SIC:o=0Bnl\;;	!LO:MO:mod=-ia.	!LO:SIC:o=0dl\;;	!LO:MO:mod=-ia.
0GG/;	-ia	0G;]	.	0B;	-ia	0d;	-ia
*	*Xij	*	*	*	*Xij	*	*Xij
==	==	==	==	==	==	==	==
*-	*-	*-	*-	*-	*-	*-	*-
!!!system-decoration: [*]
!!LO:MO:ori
!!!RDF**kern: < = below
!!!RDF**kern: l = terminal long
!!LO:MO:mod
!! !!!RDF**kern: i = editorial accidental
!!LO:MO:end
!!!filter-modern: shed -e "s/^(\d+[\/\\]right)/$1yy/I" | shed -k -e "s/,</$1/D" | shed -e "s/TX(.*):t=P:/tx$1:t=P:/LG" | shed -e "s/^custos:/Xcustos:/I" | sic -sq | modori -m | autostem -r | tie -s | humtr -p | shed -e "s/-//B"
!!!ENC: Krzysztof Stępień
!!!END: 2021-03-19
!!!EED: Andrzej Borzym
!!!EEV: 2021-03-27
!!!ENC-modern: Andrzej Kubiczek
!!!END-modern: 2023-07-21
